public/images/icons/blog.svg

<?xml version="1.0" encoding="UTF-8"?>
<svg width="64px" height="64px" viewBox="0 0 64 64" version="1.1" xmlns="http://www.w3.org/2000/svg" xmlns:xlink="http://www.w3.org/1999/xlink">
    <!-- Generator: Sketch 62 (91390) - https://sketch.com -->
    <title>icons/guides Copy 2</title>
    <desc>Created with Sketch.</desc>
    <g id="icons/guides-Copy-2" stroke="none" stroke-width="1" fill="none" fill-rule="evenodd">
        <path d="M20.0011937,50 C18.2004775,50 17,48.8 17,47 C17,45.2 18.5005968,44 20.0011937,44 L49.9502927,44 C49.7692832,45.5225 49.7852271,48.535625 50,50 L20.0011937,50 Z" id="Path" fill="currentColor" fill-rule="nonzero" opacity="0.4"></path>
        <path d="M20,44 L50.75,44 C51.9926407,44 53,42.9926407 53,41.75 L53,11 C53,9.34314575 51.6568542,8 50,8 L20,8 C15.0294373,8 11,12.0294373 11,17 L11,47 C11,51.9705627 15.0294373,56 20,56 L50.75,56 C51.9926407,56 53,54.9926407 53,53.75 L53,52.25 C53,51.0073593 51.9926407,50 50.75,50 L20,50 C18.2,50 17,48.8 17,47 C17,45.2 18.5,44 20,44 Z M25.04375,18.228125 C27.29375,16.353125 30.640625,16.690625 32.69375,18.771875 L33.5,19.5875 L34.30625,18.771875 C36.36875,16.690625 39.715625,16.353125 41.95625,18.228125 C43.1750873,19.2470947 43.912042,20.7295115 43.9886225,22.3163319 C44.0652031,23.9031523 43.4744248,25.449646 42.359375,26.58125 L34.41875,34.60625 C34.1733436,34.8538082 33.8392069,34.9930673 33.490625,34.9930673 C33.1420431,34.9930673 32.8079064,34.8538082 32.5625,34.60625 L24.621875,26.58125 C23.5114612,25.4459199 22.9255993,23.8984662 23.0057032,22.3124093 C23.0858071,20.7263523 23.8245986,19.2458003 25.04375,18.228125 L25.04375,18.228125 Z" id="Shape" fill="currentColor" fill-rule="nonzero"></path>
    </g>
</svg>

<svg width="64" height="64" xmlns="http://www.w3.org/2000/svg"><g fill="currentColor" fill-rule="nonzero"><path d="M20.001 50C18.201 50 17 48.8 17 47s1.5-3 3.001-3h29.95c-.182 1.523-.166 4.536.049 6H20.001z" opacity=".4"/><path d="M20 44h30.75A2.25 2.25 0 0 0 53 41.75V11a3 3 0 0 0-3-3H20a9 9 0 0 0-9 9v30a9 9 0 0 0 9 9h30.75A2.25 2.25 0 0 0 53 53.75v-1.5A2.25 2.25 0 0 0 50.75 50H20c-1.8 0-3-1.2-3-3s1.5-3 3-3zm5.044-25.772c2.25-1.875 5.597-1.537 7.65.544l.806.816.806-.816c2.063-2.081 5.41-2.419 7.65-.544a5.686 5.686 0 0 1 .403 8.353l-7.94 8.025a1.307 1.307 0 0 1-1.856 0l-7.941-8.025a5.694 5.694 0 0 1 .422-8.353z"/></g></svg>
